X:1
T:Title
%%score { ( 1 3 5 ) | ( 2 4 6 ) }
L:1/8
M:4/4
K:A
V:1 treble nm="Grand Piano"
V:3 treble 
V:5 treble 
V:2 bass 
V:4 bass 
V:6 bass 
V:1
 z4 z2[Q:1/4=100] E2 | A3 A G2 F2 | F2 E2 E2 A2 | G3 A B2 E2 |[M:3/4] [CEA]6 |[M:1/4] E2 | %6
[M:4/4] A3 A G2 F2 | F2 E2 E2 [Ec]2 | [EB]2 G2 A2 F2 |[M:3/4] B6 |[M:1/4] E2 |[M:4/4] A4 z4 | %12
 B4 z4 | c2 z2 d2 z2 | B6 z2 |[M:3/4] c4 z2 |[M:1/4] [=Gc]2 |[M:35/32] e4 d2- d/ z2 z/4 | %18
[M:4/4] z4 c2- c/4 z/4 z/ z |[M:3/4] z6 |] %20
V:2
 z4 z2 [A,C]2 | [A,CE]3 [A,CE] [A,CE]2 [A,D]2 | [A,D]2 [A,C]2 [A,C]2 [A,CE]2 | %3
 [E,B,E]3 [E,CE] [E,DE]2 [E,D]2 |[M:3/4] A,,6 |[M:1/4] [A,C]2 | %6
[M:4/4] [A,CE]3 [A,CE] [A,CE]2 [A,D]2 | [A,D]2 [A,C]2 [A,C]2 [A,,A,]2 | %8
 [B,,G,]2 [E,B,E]2 [F,B,^D]2 [F,A,D]2 |[M:3/4] [E,G,E]6 |[M:1/4] [E,D]2 | %11
[M:4/4] A,,-[A,,-E,][A,,-E,][A,,E,] [E,A,C]2 [A,C]2 | [G,D]G,G,G, [E,G,B,]2 [G,B,]2 | %13
 [A,E]<A, C,2 .[B,,G,]2 [A,,A,]2 | .[G,E]2 z2 z4 |[M:3/4] .A,2 z2 z2 |[M:1/4] [A,,A,]2 | %17
[M:35/32] .A,2 z2 .A,2 z2 z3/4 |[M:4/4] [A,E]3- [A,E]/4 z/4 z/ [A,E]2- [A,E]/4 z/4 z/ z | %19
[M:3/4] z6 |] %20
V:3
 x8 | x8 | x8 | x8 |[M:3/4] x6 |[M:1/4] x2 |[M:4/4] x8 | x8 | x8 |[M:3/4] x6 |[M:1/4] x2 | %11
[M:4/4] CCCC E2 E2 | z DDD E2 E2 | z/ E3/2 [A,EA]2 E<[G,E] [Ec]2 | z/ E3/2 EE E2 E2 | %15
[M:3/4] EE EE [CEA]2 |[M:1/4] x2 |[M:35/32] F<F F2 F/ F2 [Fd]2- [Fd]/4 |[M:4/4] z4 z2 B2- | %19
[M:3/4] B3/4 z/4 z z2 z2 |] %20
V:4
 x8 | x8 | x8 | x8 |[M:3/4] x6 |[M:1/4] x2 |[M:4/4] x8 | x8 | x8 |[M:3/4] x6 |[M:1/4] x2 | %11
[M:4/4] .E,2 z2 z4 | E,4 z4 | x8 | E,-<[E,-G,] [E,-G,][E,-G,] [E,G,]2 [E,G,]2 | %15
[M:3/4] A,,-[A,,-A,] [A,,-A,][A,,A,] A,,2 |[M:1/4] x2 | %17
[M:35/32] D,-<[D,-A,] [D,A,]2 D,2- D,/ [D,A,]2- [D,A,]/4 |[M:4/4] z4 z2 [E,G,D]2- | %19
[M:3/4] [E,G,D]3/4 z/4 z z2 z2 |] %20
V:5
 x8 | x8 | x8 | x8 |[M:3/4] x6 |[M:1/4] x2 |[M:4/4] x8 | x8 | x8 |[M:3/4] x6 |[M:1/4] x2 | %11
[M:4/4] x8 | x8 | x8 | x8 |[M:3/4] x6 |[M:1/4] x2 |[M:35/32] z4 z/ .A,4 z/4 | %18
[M:4/4] (3:2:2c4 A2 z4 |[M:3/4] [CA]6 |] %20
V:6
 x8 | x8 | x8 | x8 |[M:3/4] x6 |[M:1/4] x2 |[M:4/4] x8 | x8 | x8 |[M:3/4] x6 |[M:1/4] x2 | %11
[M:4/4] x8 | x8 | x8 | x8 |[M:3/4] x6 |[M:1/4] x2 |[M:35/32] x35/4 | %18
[M:4/4] (3:2:2E,4 [E,C]2 E,2 z2 |[M:3/4] [A,,A,]6 |] %20

